rospo-icon-theme-classic-common/64x64/apps/dirt-rally.svg

<svg height="64" width="64" xmlns="http://www.w3.org/2000/svg"><rect height="56" opacity=".2" rx="2.8" transform="matrix(0 -1 -1 0 0 0)" width="56" x="-61" y="-60"/><rect fill="#4f4f4f" height="56" rx="2.8" transform="matrix(0 -1 -1 0 0 0)" width="56" x="-60" y="-60"/><path d="m19.398438 11c-.7756 0-1.398438.622837-1.398438 1.398438v12.601562 12.601562c0 .7756.622838 1.398438 1.398438 1.398438h12.601562a14 14 0 0 0 14-14 14 14 0 0 0 -14-14zm7.203124 8h5.398438a5.9999998 5.9999998 0 0 1 6 6 5.9999998 5.9999998 0 0 1 -6 6h-5.398438c-.3324 0-.601562-.269162-.601562-.601562v-5.398438-5.398438c0-.3324.269162-.601562.601562-.601562z" opacity=".2"/><path d="m19.398438 10c-.7756 0-1.398438.622837-1.398438 1.398438v12.601562 12.601562c0 .7756.622838 1.398438 1.398438 1.398438h12.601562a14 14 0 0 0 14-14 14 14 0 0 0 -14-14zm7.203124 8h5.398438a5.9999998 5.9999998 0 0 1 6 6 5.9999998 5.9999998 0 0 1 -6 6h-5.398438c-.3324 0-.601562-.269162-.601562-.601562v-5.398438-5.398438c0-.332399.269162-.601562.601562-.601562z" fill="#fff"/><path d="m6.8007812 4c-1.5512 0-2.8007812 1.2495812-2.8007812 2.8007812v1c0-1.5511999 1.2495812-2.8007812 2.8007812-2.8007812h50.3984378c1.5512 0 2.800781 1.2495812 2.800781 2.8007812v-1c0-1.5511999-1.249581-2.8007812-2.800781-2.8007812z" fill="#fff" opacity=".1"/><g fill="none" opacity=".2" stroke="#000" stroke-linecap="round" stroke-width="3" transform="translate(1)"><path d="m13.490626 56.478489-2.984701-4.47705m-2.9847026-1.492353s5.9694036.693197 5.9694036-2.984696c0-3.677898-5.9694036-2.984701-5.9694036-2.984701m.0001477 11.938947v-11.938801"/><path d="m18.521364 51.5h5.969398m-5.969249 4.978636v-8.954098m5.969249 8.954098v-8.954098m-5.969398 0s0-2.984703 2.984699-2.984703 2.984699 2.984703 2.984699 2.984703" stroke-linejoin="bevel"/><path d="m29.50015 44.560941v11.938801h5.969397" stroke-linejoin="round"/><path d="m40.50015 44.560941v11.938801h5.969397" stroke-linejoin="round"/><path d="m51.489927 56.478636v-5.969403m4.477049-5.969398-4.477049 5.969398m-4.477049-5.969398 4.477049 5.969398"/></g><g fill="none" stroke="#f07400" stroke-linecap="round" stroke-width="3" transform="translate(1 -1)"><path d="m13.490626 56.478489-2.984701-4.47705m-2.9847026-1.492353s5.9694036.693197 5.9694036-2.984696c0-3.677898-5.9694036-2.984701-5.9694036-2.984701m.0001477 11.938947v-11.938801"/><path d="m18.521364 51.5h5.969398m-5.969249 4.978636v-8.954098m5.969249 8.954098v-8.954098m-5.969398 0s0-2.984703 2.984699-2.984703 2.984699 2.984703 2.984699 2.984703" stroke-linejoin="bevel"/><path d="m29.50015 44.560941v11.938801h5.969397" stroke-linejoin="round"/><path d="m40.50015 44.560941v11.938801h5.969397" stroke-linejoin="round"/><path d="m51.489927 56.478636v-5.969403m4.477049-5.969398-4.477049 5.969398m-4.477049-5.969398 4.477049 5.969398"/></g></svg>

<svg xmlns="http://www.w3.org/2000/svg" width="64" height="64" version="1">
 <rect style="opacity:0.2" width="56" height="56" x="-61" y="-60" rx="2.8" ry="2.8" transform="matrix(0,-1,-1,0,0,0)"/>
 <rect style="fill:#4f4f4f" width="56" height="56" x="-60" y="-60" rx="2.8" ry="2.8" transform="matrix(0,-1,-1,0,0,0)"/>
 <path style="opacity:0.2" d="M 19.398438,11 C 18.622838,11 18,11.622837 18,12.398438 L 18,25 18,37.601562 C 18,38.377162 18.622838,39 19.398438,39 L 32,39 A 14,14 0 0 0 46,25 14,14 0 0 0 32,11 L 19.398438,11 Z M 26.601562,19 32,19 a 5.9999998,5.9999998 0 0 1 6,6 5.9999998,5.9999998 0 0 1 -6,6 l -5.398438,0 C 26.269162,31 26,30.730838 26,30.398438 L 26,25 26,19.601562 C 26,19.269162 26.269162,19 26.601562,19 Z"/>
 <path style="fill:#ffffff" d="M 19.398438,10 C 18.622838,10 18,10.622837 18,11.398438 L 18,24 18,36.601562 C 18,37.377162 18.622838,38 19.398438,38 L 32,38 A 14,14 0 0 0 46,24 14,14 0 0 0 32,10 L 19.398438,10 Z M 26.601562,18 32,18 a 5.9999998,5.9999998 0 0 1 6,6 5.9999998,5.9999998 0 0 1 -6,6 l -5.398438,0 C 26.269162,30 26,29.730838 26,29.398438 L 26,24 26,18.601562 C 26,18.269163 26.269162,18 26.601562,18 Z"/>
 <path style="opacity:0.1;fill:#ffffff" d="M 6.8007812 4 C 5.2495812 4 4 5.2495812 4 6.8007812 L 4 7.8007812 C 4 6.2495813 5.2495812 5 6.8007812 5 L 57.199219 5 C 58.750419 5 60 6.2495812 60 7.8007812 L 60 6.8007812 C 60 5.2495813 58.750419 4 57.199219 4 L 6.8007812 4 z"/>
 <g style="opacity:0.2;stroke:#000000" transform="translate(0.99999973,2.6624095e-7)">
  <path style="fill:none;stroke:#000000;stroke-width:3;stroke-linecap:round" d="m 13.490626,56.478489 -2.984701,-4.47705 M 7.5212224,50.509086 c 0,0 5.9694036,0.693197 5.9694036,-2.984696 0,-3.677898 -5.9694036,-2.984701 -5.9694036,-2.984701 m 1.477e-4,11.938947 0,-11.938801"/>
  <path style="fill:none;stroke:#000000;stroke-width:3;stroke-linecap:round;stroke-linejoin:bevel" d="m 18.521364,51.5 5.969398,0 m -5.969249,4.978636 0,-8.954098 m 5.969249,8.954098 0,-8.954098 m -5.969398,0 c 0,0 0,-2.984703 2.984699,-2.984703 2.984699,0 2.984699,2.984703 2.984699,2.984703"/>
  <path style="fill:none;stroke:#000000;stroke-width:3;stroke-linecap:round;stroke-linejoin:round" d="m 29.50015,44.560941 0,11.938801 5.969397,0 0,0"/>
  <path style="fill:none;stroke:#000000;stroke-width:3;stroke-linecap:round;stroke-linejoin:round" d="m 40.50015,44.560941 0,11.938801 5.969397,0 0,0"/>
  <path style="fill:none;stroke:#000000;stroke-width:3;stroke-linecap:round" d="m 51.489927,56.478636 0,-5.969403 m 4.477049,-5.969398 -4.477049,5.969398 m -4.477049,-5.969398 4.477049,5.969398"/>
 </g>
 <g transform="translate(0.99999973,-1)">
  <path style="fill:none;stroke:#f07400;stroke-width:3;stroke-linecap:round" d="m 13.490626,56.478489 -2.984701,-4.47705 M 7.5212224,50.509086 c 0,0 5.9694036,0.693197 5.9694036,-2.984696 0,-3.677898 -5.9694036,-2.984701 -5.9694036,-2.984701 m 1.477e-4,11.938947 0,-11.938801"/>
  <path style="fill:none;stroke:#f07400;stroke-width:3;stroke-linecap:round;stroke-linejoin:bevel" d="m 18.521364,51.5 5.969398,0 m -5.969249,4.978636 0,-8.954098 m 5.969249,8.954098 0,-8.954098 m -5.969398,0 c 0,0 0,-2.984703 2.984699,-2.984703 2.984699,0 2.984699,2.984703 2.984699,2.984703"/>
  <path style="fill:none;stroke:#f07400;stroke-width:3;stroke-linecap:round;stroke-linejoin:round" d="m 29.50015,44.560941 0,11.938801 5.969397,0 0,0"/>
  <path style="fill:none;stroke:#f07400;stroke-width:3;stroke-linecap:round;stroke-linejoin:round" d="m 40.50015,44.560941 0,11.938801 5.969397,0 0,0"/>
  <path style="fill:none;stroke:#f07400;stroke-width:3;stroke-linecap:round" d="m 51.489927,56.478636 0,-5.969403 m 4.477049,-5.969398 -4.477049,5.969398 m -4.477049,-5.969398 4.477049,5.969398"/>
 </g>
</svg>
